svg/outline/exchange.svg

<svg width="24" height="24" viewBox="0 0 24 24" fill="none" xmlns="http://www.w3.org/2000/svg">
<path d="M17.757 7.19271C16.3812 5.54691 14.3129 4.5 12 4.5C7.85786 4.5 4.5 7.85786 4.5 12C4.5 12.5121 4.55133 13.0123 4.64913 13.4956M19.3004 10.2738C19.4309 10.828 19.5 11.4059 19.5 12C19.5 16.1421 16.1421 19.5 12 19.5C9.61377 19.5 7.48782 18.3856 6.1142 16.6489" stroke="black" stroke-linecap="round"/>
<path d="M18.125 5.5V7.5H16.125" stroke="black" stroke-linecap="round" stroke-linejoin="round"/>
<path d="M7.875 16.5L5.875 16.5V18.5" stroke="black" stroke-linecap="round" stroke-linejoin="round"/>
<path d="M12 8V16" stroke="black" stroke-linecap="round"/>
<path d="M13.8102 10.1516C13.6905 9.62158 13.0066 9.0317 12.0063 9.03169C11.0061 9.03168 10.2366 9.68143 10.2366 10.5022C10.2366 12.3659 13.947 11.4084 13.947 13.5713C13.947 14.3531 13.0065 15.0161 12.0063 15.0161C11.0062 15.0161 10.3135 14.4006 10.1084 13.7423" stroke="black" stroke-linecap="round" stroke-linejoin="round"/>
</svg>

<svg xmlns="http://www.w3.org/2000/svg" fill="none" viewBox="0 0 24 24" stroke="currentColor">
  <path stroke-linecap="round" d="M17.757 7.193a7.5 7.5 0 00-13.108 6.303M19.3 10.274a7.5 7.5 0 01-13.186 6.375"/>
  <path stroke-linecap="round" stroke-linejoin="round" d="M18.125 5.5v2h-2M7.875 16.5h-2v2"/>
  <path stroke-linecap="round" d="M12 8v8"/>
  <path stroke-linecap="round" stroke-linejoin="round" d="M13.81 10.152c-.12-.53-.803-1.12-1.804-1.12-1 0-1.77.65-1.77 1.47 0 1.864 3.711.906 3.711 3.07 0 .781-.94 1.444-1.94 1.444s-1.694-.615-1.899-1.274"/>
</svg>
